X: 137020
Q: "Irish Jig."
M: 6/8
L: 1/8
K: A
uE |\
EAc e2f | edc B2d | | cAe dBf | A3 uG2uE |\
EAc ue2ue | edc B2B | dcA cBG | B3 A2 :|\
uA |\
aec Ace | edc B2B | cde fdB | A3 G2E |\
EAc e2e | edc B2B | dcA cBG | B3 A2 H|]


